X: 38797
T: Such A Gettin' Upstairs
R: reel
M: 4/4
K: Dmajor
|:fedB A2d2|cdef e2de|fedB A2d2|cdec d2de:|
|:fefg a2a2|f2g2 a2a2|abaf afef|gfed e2de:|

